X:387
T:Ardeleana de la Recas
Z:Jack Campin, http://www.campin.me.uk/
F:Jack Campin's Nine-Note Tunebook
% last edit 03-02-2013
G:Romanian dance tune
M:4/4
L:1/16
Q:1/4=150
K:DMix
.F2.G2 .A2B2  c2d2  ddc2 |c2^A/=A/^A =AAA=F AGGF  FEC2|
 GFG^G  A=GAB cBc2 ^cdd=c|c^AA=A AGFG  AG=FF FEC2|
({G}(3::2c2)^A4 =A2G2 =F({A}G)F2 FEF2|GFG^A (3::2=A2G AB (3::2c2B c2 cddc|
c^AA=A AG=FG AGGF FEDE|=FEDD DC[B,D]C D8|]

